X:70
T: Xia guandong
N: C1568
O: China, Shandong, Qingdao
S: III, 362]
R: Xiaodiao]
M: 2/4
L: 1/16
K: F
F2F2D2C2 | F4D2C2 | c3AG2A2 | c8
c2A2c2f2 | d2edc4 | d2c2c2A2 | G8
G4c4 | A6G2 | c3dA2G2 | F4C4
F6GA | G4F2D2 | C8- | C8
F2F2C2D2 | F8 | c4c4 | A6G2
c2A2c2f2 | d4c4 | d2c2c2A2 | G8
c4c4 | A4G2F2 | D4F4 | F2C2D4
F4G2A2 | G2F2D4 | C8- | C4z4

